X: 27396
T: Mockingbird Hill
R: waltz
M: 3/4
K: Dmajor
|:AG|F2 A2 d2|f2 d2 A2|G2 B2 d2|g4 cB|
A3 A ce|g2 e2 g2|1 f2 d2 B2|A4 ]:|2 f2 d2 d2|d4 Ad||
|:f4 (3fef|g2 f2 e2|d2 G2 B2|A4 f2|
g3 e cB|A2 c2 eg|1 f2 d2 B2|A4 Ad ]:|2 f2 d2 d2|d4||

